svg/furkot/icomoon/twitter.svg

<svg viewBox="0 0 512 512" xmlns="http://www.w3.org/2000/svg"><path d="m512 97.208c-18.84 8.352-39.08 14-60.328 16.536 21.688-13 38.344-33.584 46.184-58.112-20.296 12.04-42.776 20.776-66.704 25.488-19.16-20.416-46.464-33.168-76.672-33.168-58.008 0-105.04 47.032-105.04 105.04 0 8.232.928 16.248 2.72 23.936-87.296-4.384-164.704-46.2-216.512-109.752-9.04 15.512-14.224 33.56-14.224 52.808 0 36.448 18.544 68.6 46.728 87.432-17.216-.544-33.416-5.272-47.576-13.136-.008.44-.008.88-.008 1.32 0 50.896 36.208 93.344 84.264 103-8.816 2.4-18.096 3.688-27.672 3.688-6.768 0-13.352-.664-19.76-1.888 13.368 41.728 52.16 72.104 98.128 72.944-35.952 28.176-81.24 44.968-130.456 44.968-8.48 0-16.84-.496-25.056-1.472 46.488 29.808 101.704 47.2 161.024 47.2 193.208 0 298.864-160.064 298.864-298.872 0-4.552-.104-9.088-.304-13.592 20.528-14.808 38.336-33.312 52.416-54.376z"/></svg>

<svg xmlns="http://www.w3.org/2000/svg" viewBox="0 0 512 512"><path d="M512 97.208C493.16 105.56 472.92 111.208 451.672 113.744 473.36 100.744 490.016 80.16 497.856 55.632 477.56 67.672 455.08 76.408 431.152 81.12 411.992 60.704 384.688 47.952 354.48 47.952 296.472 47.952 249.44 94.984 249.44 152.992 249.44 161.224 250.368 169.24 252.16 176.928 164.864 172.544 87.456 130.728 35.648 67.176 26.608 82.688 21.424 100.736 21.424 119.984 21.424 156.432 39.968 188.584 68.152 207.416 50.936 206.872 34.736 202.144 20.576 194.28 20.568 194.72 20.568 195.16 20.568 195.6 20.568 246.496 56.776 288.944 104.832 298.6 96.016 301 86.736 302.288 77.16 302.288 70.392 302.288 63.808 301.624 57.4 300.4 70.768 342.128 109.56 372.504 155.528 373.344 119.576 401.52 74.288 418.312 25.072 418.312 16.592 418.312 8.232 417.816 0.016 416.84 46.504 446.648 101.72 464.04 161.04 464.04 354.248 464.04 459.904 303.976 459.904 165.168 459.904 160.616 459.8 156.08 459.6 151.576 480.128 136.768 497.936 118.264 512.016 97.2Z"/></svg>
